X:267
M:4/4
L:1/4
K:D
F | F3/2 D/ D E | F3/2 F/ F G | A3 F | E F G3/2 G/ | G F A F | E3 F | F3/2 D/ D E | F3/2 F/ F G | A3 F | B A ^G3/2 ^G/ | A B c B | A3 A | d A G F | B B d B | A3 !sintro!A | G F E D | B3/2 G/ F E | D3 !eintro!|]
